!!!OTL: Liangzhu xia shan
!!!ARE: Asia, China,ˇbei Liaoning, Haicheng
!! III, 265
!!!SCT: C1557
!!!YEM: Copyright 1995, estate of Helmut Schaffrath.
**kern
*ICvox
*Ivox
*M2/4
*k[b-]
*F:
{8dd
16ee
16dd
8cc
8a
=1
8dd
16ee
16dd
8cc
8a
=2
16dd
16cc
16dd
16ff
16dd
16cc
8a
=3
2g}
=4
{8gg
4gg
8ee
=5
8dd
16ff
16dd
8cc
8a
=6
8g
16a
16g
8e
8d
=7
8d
4c}
{8A
=8
4.d
8f
=9
4g
8cc
8a
=10
8g
16a
16g
8e
8d
=11
4.c}
{8A
=12
8g
8g
8d
8f
=13
8.g
16f
4g}
=14
{8r
4a
8a
=15
4dd
4ff
=16
4.g
8e
=17
8d
4d
8A
=18
2c}
==
!!!AGN: Xiaodiao, MengjiangnÅ diao, liangshanbo yu zhuyingtai de gushi
!!!AMT: simple duple
!!!AIN: vox
!!!EED: Helmut Schaffrath
!!!EEV: 1.0
*-
